src/assets/duotone/SidebarLeft.svg

<svg width="24" height="24" viewBox="0 0 24 24"  xmlns="http://www.w3.org/2000/svg">
<path opacity="0.4" d="M22 7.81V16.19C22 19.83 19.83 22 16.19 22H7.81C7.61 22 7.41 21.99 7.22 21.98C5.99 21.9 4.95 21.55 4.13 20.95C3.71 20.66 3.34 20.29 3.05 19.87C2.36 18.92 2 17.68 2 16.19V7.81C2 4.37 3.94 2.24 7.22 2.03C7.41 2.01 7.61 2 7.81 2H16.19C17.68 2 18.92 2.36 19.87 3.05C20.29 3.34 20.66 3.71 20.95 4.13C21.64 5.08 22 6.32 22 7.81Z" />
<path d="M8.72022 2V22H7.81021C7.61022 22 7.41021 21.99 7.22021 21.98V2.03C7.41021 2.01 7.61022 2 7.81021 2H8.72022Z" />
<path d="M14.9701 15.3099C14.7801 15.3099 14.5901 15.2399 14.4401 15.0899L11.8801 12.5299C11.5901 12.2399 11.5901 11.7599 11.8801 11.4699L14.4401 8.90988C14.7301 8.61988 15.2101 8.61988 15.5001 8.90988C15.7901 9.19988 15.7901 9.67988 15.5001 9.96988L13.4801 11.9999L15.5101 14.0299C15.8001 14.3199 15.8001 14.7999 15.5101 15.0899C15.3601 15.2399 15.1701 15.3099 14.9701 15.3099Z" />
</svg>

<?xml version="1.0" encoding="UTF-8"?>
<svg width="24" height="24" viewBox="0 0 24 24" xmlns="http://www.w3.org/2000/svg">
 <path d="m22 7.81v8.38c0 3.64-2.17 5.81-5.81 5.81h-8.38c-0.2 0-0.4-0.01-0.59-0.02-1.23-0.08-2.27-0.43-3.09-1.03-0.42-0.29-0.79-0.66-1.08-1.08-0.69-0.95-1.05-2.19-1.05-3.68v-8.38c0-3.44 1.94-5.57 5.22-5.78 0.19-0.02 0.39-0.03 0.59-0.03h8.38c1.49 0 2.73 0.36 3.68 1.05 0.42 0.29 0.79 0.66 1.08 1.08 0.69 0.95 1.05 2.19 1.05 3.68z" opacity=".4"/>
 <path d="m8.7202 2v20h-0.91001c-0.19999 0-0.4-0.01-0.59-0.02v-19.95c0.19-0.02 0.39001-0.03 0.59-0.03h0.91001z"/>
 <path d="m14.97 15.31c-0.19 0-0.38-0.07-0.53-0.22l-2.56-2.56c-0.29-0.29-0.29-0.77 0-1.06l2.56-2.56c0.29-0.29 0.77-0.29 1.06 0s0.29 0.77 0 1.06l-2.02 2.03 2.03 2.03c0.29 0.29 0.29 0.77 0 1.06-0.15 0.15-0.34 0.22-0.54 0.22z"/>
</svg>
